symbols/web/play_lesson/materialsymbolsoutlined/play_lesson_wght200gradN25fill1_40px.svg

<svg xmlns="http://www.w3.org/2000/svg" height="40" width="40"><path d="M12.375 6.458v10.209l3.25-1.959 3.25 1.959V6.458Zm16.833 29.584q-2.708 0-4.583-1.917t-1.875-4.583q0-2.709 1.917-4.584 1.916-1.875 4.75-1.875 2.583 0 4.437 1.875t1.854 4.584q0 2.708-1.896 4.604-1.895 1.896-4.604 1.896ZM27.875 32.5l4.042-3.042-4.042-3Zm-8.167-2.958q0 1.458.375 2.812.375 1.354 1.209 2.521H9.167q-.959 0-1.667-.687-.708-.688-.708-1.688v-25q0-.958.708-1.667.708-.708 1.667-.708h18.375q.958 0 1.666.708.709.709.709 1.667v12.542Q29.75 20 29.646 20h-.229q-4.042 0-6.875 2.771-2.834 2.771-2.834 6.771Z"/></svg>

<svg xmlns="http://www.w3.org/2000/svg" height="40" width="40"><path d="M12.375 6.458V16.667L15.625 14.708L18.875 16.667V6.458ZM29.208 36.042Q26.5 36.042 24.625 34.125Q22.75 32.208 22.75 29.542Q22.75 26.833 24.667 24.958Q26.583 23.083 29.417 23.083Q32 23.083 33.854 24.958Q35.708 26.833 35.708 29.542Q35.708 32.25 33.812 34.146Q31.917 36.042 29.208 36.042ZM27.875 32.5 31.917 29.458 27.875 26.458ZM19.708 29.542Q19.708 31 20.083 32.354Q20.458 33.708 21.292 34.875H9.167Q8.208 34.875 7.5 34.188Q6.792 33.5 6.792 32.5V7.5Q6.792 6.542 7.5 5.833Q8.208 5.125 9.167 5.125H27.542Q28.5 5.125 29.208 5.833Q29.917 6.542 29.917 7.5V20.042Q29.75 20 29.646 20Q29.542 20 29.417 20Q25.375 20 22.542 22.771Q19.708 25.542 19.708 29.542Z"/></svg>
